src/lib/packages/icons/src/assets/filled/trash-check.svg

<svg width="24" height="24" viewBox="0 0 24 24" fill="none" xmlns="http://www.w3.org/2000/svg">
<path d="M20.75 6C20.75 6.414 20.414 6.75 20 6.75H4C3.586 6.75 3.25 6.414 3.25 6C3.25 5.586 3.586 5.25 4 5.25H8.214C8.307 5.068 8.37899 4.862 8.45599 4.632L8.658 4.02499C8.862 3.41299 9.43499 3 10.081 3H13.919C14.565 3 15.138 3.41299 15.342 4.02499L15.544 4.632C15.621 4.862 15.693 5.068 15.786 5.25H20C20.414 5.25 20.75 5.586 20.75 6ZM18.859 8.07001L18.19 18.2C18.08 19.78 17.25 21 15.19 21H8.81C6.75 21 5.92 19.78 5.81 18.2L5.14101 8.07001C5.13001 7.89701 5.267 7.75 5.44 7.75H18.559C18.733 7.75 18.87 7.89701 18.859 8.07001ZM15.03 11.803C14.737 11.51 14.262 11.51 13.969 11.803L11.166 14.606L10.03 13.47C9.737 13.177 9.26199 13.177 8.96899 13.47C8.67599 13.763 8.67599 14.238 8.96899 14.531L10.636 16.198C10.777 16.339 10.968 16.418 11.166 16.418C11.364 16.418 11.556 16.339 11.696 16.198L15.029 12.865C15.323 12.571 15.323 12.096 15.03 11.803Z" fill="currentColor"/>
</svg>

<svg xmlns="http://www.w3.org/2000/svg" width="24" height="24" fill="none"><path fill="currentColor" d="M20.75 6a.75.75 0 0 1-.75.75H4a.75.75 0 0 1 0-1.5h4.214a4.53 4.53 0 0 0 .242-.618l.202-.607A1.5 1.5 0 0 1 10.081 3h3.838a1.5 1.5 0 0 1 1.423 1.025l.202.607c.077.23.149.436.242.618H20a.75.75 0 0 1 .75.75Zm-1.891 2.07L18.19 18.2c-.11 1.58-.94 2.8-3 2.8H8.81c-2.06 0-2.89-1.22-3-2.8L5.141 8.07a.3.3 0 0 1 .299-.32h13.119a.3.3 0 0 1 .3.32Zm-3.829 3.733a.75.75 0 0 0-1.061 0l-2.803 2.803-1.136-1.136a.75.75 0 1 0-1.061 1.061l1.667 1.667a.75.75 0 0 0 1.06 0l3.333-3.333a.75.75 0 0 0 .001-1.062Z"/></svg>
